src/assets/svg/icons/fa/nuevos/classic/thin/octagon-minus classic thin.svg

<svg xmlns="http://www.w3.org/2000/svg" viewBox="0 0 512 512"><path d="M352 247.1C356.4 247.1 360 251.6 360 255.1C360 260.4 356.4 263.1 352 263.1H160C155.6 263.1 152 260.4 152 255.1C152 251.6 155.6 247.1 160 247.1H352zM320.5 .0628C339.6 .0628 357.9 7.648 371.4 21.15L490.8 140.6C504.3 154.1 511.9 172.4 511.9 191.5V320.5C511.9 339.6 504.3 357.9 490.8 371.4L371.4 490.8C357.9 504.3 339.6 511.9 320.5 511.9H191.5C172.4 511.9 154.1 504.3 140.6 490.8L21.15 371.4C7.652 357.9 .0666 339.6 .0666 320.5V191.5C.0666 172.4 7.652 154.1 21.15 140.6L140.6 21.15C154.1 7.648 172.4 .0625 191.5 .0625L320.5 .0628zM32.47 151.9C21.97 162.4 16.07 176.7 16.07 191.5V320.5C16.07 335.3 21.97 349.6 32.47 360.1L151.9 479.5C162.4 490 176.7 495.9 191.5 495.9H320.5C335.3 495.9 349.6 490 360.1 479.5L479.5 360.1C490 349.6 495.9 335.3 495.9 320.5V191.5C495.9 176.7 490 162.4 479.5 151.9L360.1 32.46C349.6 21.96 335.3 16.06 320.5 16.06H191.5C176.7 16.06 162.4 21.96 151.9 32.46L32.47 151.9z"/></svg>

<svg xmlns="http://www.w3.org/2000/svg" viewBox="0 0 512 512"><!--! Font Awesome Pro 6.4.0 by @fontawesome - https://fontawesome.com License - https://fontawesome.com/license (Commercial License) Copyright 2023 Fonticons, Inc. --><path d="M191.5 16.1c-14.9 0-29.1 5.9-39.6 16.4L32.5 151.9C22 162.4 16.1 176.7 16.1 191.5v129c0 14.9 5.9 29.1 16.4 39.6L151.9 479.5c10.5 10.5 24.7 16.4 39.6 16.4h129c14.9 0 29.1-5.9 39.6-16.4L479.5 360.1c10.5-10.5 16.4-24.7 16.4-39.6v-129c0-14.9-5.9-29.1-16.4-39.6L360.1 32.5C349.6 22 335.3 16.1 320.5 16.1h-129zm-50.9 5.1C154.1 7.7 172.4 .1 191.5 .1h129c19.1 0 37.4 7.6 50.9 21.1L490.8 140.6c13.5 13.5 21.1 31.8 21.1 50.9v129c0 19.1-7.6 37.4-21.1 50.9L371.4 490.8c-13.5 13.5-31.8 21.1-50.9 21.1h-129c-19.1 0-37.4-7.6-50.9-21.1L21.2 371.4C7.7 357.9 .1 339.6 .1 320.5v-129c0-19.1 7.6-37.4 21.1-50.9L140.6 21.2zM160 248H352c4.4 0 8 3.6 8 8s-3.6 8-8 8H160c-4.4 0-8-3.6-8-8s3.6-8 8-8z"/></svg>
